X:144100
T:The Rose of Kelvingrove
H: 
B: https://abcnotation.com/tunePage?a=trillian.mit.edu/~jc/music/abc/mirror/corneymusers/Rose_of_Kelvingrove_10/0000
C: Trad (1860s)
O:Arranged Kevin Fraser
Z:Kevin Fraser
M:C
Q:1/4=70
L:1/8
R:March
R:March
U: R = ///
U: r = //
U: V = !accent!
V:M gstem=up stem=down name="Melody"
V:H gstem=up stem=down name="Harmony"
V:C gstem=up stem=down name="C-Harmony"
V:S gstem=up stem=down dyn=up stafflines=1 clef=perc middle=G name="Snare" sname="Snare"" sname="Snare"
V:B gstem=up stem=down clef=none dyn=up name="Bass"
V:T gstem=up stem=down clef=none dyn=up name="Tenor"
V:BB gstem=up stem=down name="Brass Bass" sname="ABCD-C" transpose=-2  octave=-1 clef=bass
V:BC gstem=up stem=down name="Brass Chord" sname="ABCD-D" transpose=-2
V:BD gstem=up stem=down name="Brass Chord 2" sname="ABCD-B" transpose=-2
V:P gstem=up stem=down name="Piano" octave=-1
I:MIDI=program 110
V:M gstem=up stem=down name="Melody"
%%MIDI program 109 #bagpipes
%%MIDI vol 100
% %score {M S B }
%%score {M}
%%landscape
K:HP 
[K:Amix]
[V:M][|:{g}A3/2d/2|{g}fe {g}dc{Gdc}d2{g}A3/2d/2|{gBd}B6{g}B2|  {gf}gf {g}ed{gBd}B2 {g}G3/2d/2| {gcd}c6{g}c3/2B/2| !
w: hen a | che e ha o tra hen a | hoto ho | vili ve he a hoto hem a | hoto ho o | !
[V:M] xxx|{g}A2 {GAG}Ad{g}f2{ag}a2|  {f}g6d2|{g}e3{A}e{g}f2{g}e3/2d/2|{g}e6:|] !
w: | hen rarin a che dili | vedi a | he ende che he a | he !
[V:M]|:  {g}A>d|{ag}a3g{a}f2e2|{Gdc}d6{g}B2|  {gf}g3f{g}e2{Gdc}d2|{gde}d4 {gcd}c2{e}A2| !
w: hen a | dili di che e | tra ho | vidi ve he tra | hata hoto ho
[V:M]{ag}a3g{a}f2e2|  {Gdc}d3g{f}g4|{a}f3{AGAG}A [1 {g}fe {g}dc|{Gdc}d6:|] [2 {g}f2 {g}e>d | {g}e6|] !
w:dili di che e | tra di li | che enrarin che e ha o | tra  che he a | he

[V:B] [: z2 | c2 z cc2 z2 | c2 z cc2 z2 | c2 z cc2 z2 | c2 z cc2 z2 | !
[V:B]     x | c2 z cc2 z2 | c2 z cc2 z2 | c2 z cc2 z2 | c2 z cc2  :|] !
[V:B] [: z2 | c2 z cc2 z2 | c2 z cc2 z2 | c2 z cc2 z2 | c2 z cc2 z2 | !
[V:B]     x | c2 z cc2 z2 | c2 z cc2 z2 | c2 z cc2 z2 | c2 z cc2  :|] !
[V:S] [: z2 | e>c ec (re>c) e/e/c | ee/c/ ec ee/c/ e(rc | e)>c ec (re>c) e/e/c | ee/c/ ec ee/c/ e(rc | 
%%MIDI program 15 
[V:BB] [|:z2| [e,]8 | [e,]8 |  [f,]8 | [b,,]8 | !
[V:BB] xxx| [e,]8 | [e,]8 |  [f,]8 | [b,,]6- :|] !
[V:BB] [|:[f,]2| [e,]8 | [c,]8 |  [f,]8 | [e,]4[d,]4 | !
[V:BB]  [e,]8 | [e,]8 |  [b,,]4-[1[b,,]4 | [c,]6 :|] [2[f,]4 | [f,]6 |] !
[V:BC] [|:z2| [b,g,]8 | [ca,]8 |  [a,c]8 | [f,d]8 | !
[V:BC] xxx| [b,g,]8 | [ca,]8 |  [a,c]8 | [f,d]6- :|] !
[V:BC] [|:[b,d]2| [b,g,]8 | [g,c]8 |  [a,c]8 | [g,c]4[f,b,]4 | !
[V:BC]  [b,g,]8 | [ca,]8 |  [a,c]4-[1[a,c]4 | [e,g]6 :|] [2[a,c]4 | [b,d]6 |] !
[V:BD] [|:z2| [e,b,g,]8 | [e,ca,]8 |  [f,a,c]8 | [f,b,d]8 | !
[V:BD] xxx| [e,b,g,]8 | [e,ca,]8 |  [f,a,c]8 | [f,b,d]6- :|] !
[V:BD] [|:[f,b,d]2| [e,b,g,]8 | [e,g,c]8 |  [f,a,c]8 | [e,g,c]4[d,f,b,]4 | !
[V:BD]  [e,b,g,]8 | [e,ca,]8 |  [f,a,c]4-[1[f,a,c]4 | [f,b,d]6 :|] [2[f,a,c]4 | [f,b,d]6 |] !



